icons/24x24_document_outline.svg

<svg xmlns="http://www.w3.org/2000/svg" width="24" height="24" viewBox="0 0 24 24">
  <path d="M13,4 L6,4 L6,20 L18,20 L18,9 L13,9 L13,4 Z M6,2 L13.3721013,2 C13.9114482,2 14.4279331,2.21783436 14.8043755,2.60408068 L19.4322742,7.3525067 C19.7962814,7.72599398 20,8.22689558 20,8.74842602 L20,20 C20,21.1045695 19.1045695,22 18,22 L6,22 C4.8954305,22 4,21.1045695 4,20 L4,4 C4,2.8954305 4.8954305,2 6,2 Z M10,11 L14,11 C14.5522847,11 15,11.4477153 15,12 C15,12.5522847 14.5522847,13 14,13 L10,13 C9.44771525,13 9,12.5522847 9,12 C9,11.4477153 9.44771525,11 10,11 Z M10,15 L14,15 C14.5522847,15 15,15.4477153 15,16 C15,16.5522847 14.5522847,17 14,17 L10,17 C9.44771525,17 9,16.5522847 9,16 C9,15.4477153 9.44771525,15 10,15 Z"/>
</svg>

<svg width="24" height="24" fill="none" xmlns="http://www.w3.org/2000/svg"><path d="M13 4H6v16h12V9h-5V4ZM6 2h7.372a2 2 0 0 1 1.432.604l4.628 4.749A2 2 0 0 1 20 8.748V20a2 2 0 0 1-2 2H6a2 2 0 0 1-2-2V4a2 2 0 0 1 2-2Zm4 9h4a1 1 0 1 1 0 2h-4a1 1 0 1 1 0-2Zm0 4h4a1 1 0 1 1 0 2h-4a1 1 0 1 1 0-2Z" fill="#000"/></svg>
